**kern	**text	**kern	**text	**kern	**text	**kern	**text	**kern	**text
*staff5	*staff5	*staff4	*staff4	*staff3	*staff3	*staff2	*staff2	*staff1	*staff1
*I"Basso	*	*I"Tenore	*	*I"Alto	*	*I"Soprano II	*	*I"Soprano I	*
=1-	=1-	=1-	=1-	=1-	=1-	=1-	=1-	=1-	=1-
*clefF4	*	*clefGv2	*	*clefGv2	*	*clefG2	*	*clefG2	*
*k[]	*	*k[]	*	*k[]	*	*k[]	*	*k[]	*
*met(c|)	*	*met(c|)	*	*met(c|)	*	*met(c|)	*	*met(c|)	*
*M2/2	*	*M2/2	*	*M2/2	*	*M2/2	*	*M2/2	*
[1C	Tra-	[1c	Tra-	[1e	Tra-	1r	.	[1g	Tra-
=2	=2	=2	=2	=2	=2	=2	=2	=2	=2
2C/]	.	2c\]	.	2e\]	.	1r	.	2g/]	.
2E\	-di-	2c\	-di-	2e\	-di-	.	.	2g/	-di-
=3	=3	=3	=3	=3	=3	=3	=3	=3	=3
[1F	-de-	[1A	-de-	[1c	-de-	1r	.	[1f	-de-
=4	=4	=4	=4	=4	=4	=4	=4	=4	=4
2F\]	.	2A/]	.	2c\]	.	1r	.	2f/]	.
2D\	-runt	2A/	-runt	2d\	-runt	.	.	2f/	-runt
=5	=5	=5	=5	=5	=5	=5	=5	=5	=5
2E\	me	2G/	me	2B\	me	1r	.	2e/	me
2C/	in	[2c\	in	2e\	in	.	.	2g/	in
=6	=6	=6	=6	=6	=6	=6	=6	=6	=6
1G	ma-	2c\]	.	1d	ma-	1r	.	1g	ma-
.	.	2B\	ma-	.	.	.	.	.	.
=7	=7	=7	=7	=7	=7	=7	=7	=7	=7
2E\	-nus	2c\	-nus	2e\	-nus	1r	.	2g/	.
[2F\	im-	[2A/	im-	[2c\	im-	.	.	2f/	-nus
=8	=8	=8	=8	=8	=8	=8	=8	=8	=8
2F\]	.	2A/]	.	2c\]	.	1r	.	2f/	im-
2F\	-pi-	2A/	-pi-	2c\	-pi-	.	.	2f/	-pi-
=9	=9	=9	=9	=9	=9	=9	=9	=9	=9
1A	-o-	2A/	-o-	2.c\	-o-	1r	.	2.e/	-o-
.	.	[2c\	.	.	.	.	.	.	.
.	.	.	.	4d\	.	.	.	4f/	.
=10	=10	=10	=10	=10	=10	=10	=10	=10	=10
1G	.	2c\]	.	1e	.	1r	.	1g	.
.	.	4B\	.	.	.	.	.	.	.
.	.	4A/	.	.	.	.	.	.	.
=11	=11	=11	=11	=11	=11	=11	=11	=11	=11
!!linebreak:original
1G	-rum,	1B	-rum,	1d	-rum,	1r	.	1g	-rum,
=12	=12	=12	=12	=12	=12	=12	=12	=12	=12
1r	.	2r	.	2r	.	1r	.	1r	.
.	.	2G/	et	2d\	et	.	.	.	.
=13	=13	=13	=13	=13	=13	=13	=13	=13	=13
2r	.	1c	in-	1e	in-	1r	.	2r	.
2C/	et	.	.	.	.	.	.	2g/	et
=14	=14	=14	=14	=14	=14	=14	=14	=14	=14
1G	in-	2B\	-ter	2d\	-ter	1r	.	1g	in-
.	.	2B\	i-	2d\	i-	.	.	.	.
=15	=15	=15	=15	=15	=15	=15	=15	=15	=15
2F\	-ter	1d	-ni-	1f	-ni-	1r	.	2a/	-ter
2F\	i-	.	.	.	.	.	.	2a/	i-
=16	=16	=16	=16	=16	=16	=16	=16	=16	=16
1A	-ni-	1c	-quos	1e	-quos	1r	.	1cc	-ni-
=17	=17	=17	=17	=17	=17	=17	=17	=17	=17
2G\	-quos	1d	pro-	2g\	pro-	1r	.	2b\	-quos
2D\	pro-	.	.	2f\	-je-	.	.	2a/	pro-
=18	=18	=18	=18	=18	=18	=18	=18	=18	=18
2E\	-je-	2B\	-je-	[1e	-ce-	1r	.	2g/	-je-
[2C/	-ce-	[2c\	-ce-	.	.	.	.	[2g/	-ce-
=19	=19	=19	=19	=19	=19	=19	=19	=19	=19
2C/]	.	2c\]	.	2e\]	.	1r	.	2g/]	.
2D\	-runt	2A/	-runt	2d\	-runt	.	.	2f#/	-runt
=20	=20	=20	=20	=20	=20	=20	=20	=20	=20
1GG	me,	1B	me,	1d	me,	1r	.	1g	me,
=21	=21	=21	=21	=21	=21	=21	=21	=21	=21
2r	.	2r	.	2r	.	1r	.	2r	.
[2D\	et	[2A/	et	[2d\	et	.	.	[2f/	et
=22	=22	=22	=22	=22	=22	=22	=22	=22	=22
!!pagebreak:original
2D\]	.	2A/]	.	2d\]	.	1r	.	2f/]	.
2F\	non	2A/	non	2c\	non	.	.	2f/	non
=23	=23	=23	=23	=23	=23	=23	=23	=23	=23
2D\	pe-	2A/	pe-	2d\	pe-	1r	.	2f/	pe-
2C/	-per-	2c\	-per-	2e\	-per-	.	.	2g/	-per-
=24	=24	=24	=24	=24	=24	=24	=24	=24	=24
1F	-ce-	1c	-ce-	1f	-ce-	1r	.	1a	-ce-
=25	=25	=25	=25	=25	=25	=25	=25	=25	=25
2C/	-runt	2c\	-runt	2e\	-runt	1r	.	2g/	-runt
[2C/	a-	[2G/	a-	[2c\	a-	.	.	[2e/	a-
=26	=26	=26	=26	=26	=26	=26	=26	=26	=26
2C/]	.	2G/]	.	2c\]	.	1r	.	2e/]	.
2AA/	-ni-	2A/	-ni-	2c\	-ni-	.	.	2e/	-ni-
=27	=27	=27	=27	=27	=27	=27	=27	=27	=27
2C/	-mae	2G/	-mae	1c	-mae	1r	.	1e	-mae
[2C/	me-	[2G/	me-	.	.	.	.	.	.
=28	=28	=28	=28	=28	=28	=28	=28	=28	=28
2C/]	.	2G/]	.	1c	me-	1r	.	1a	me-
2AA/	.	2F#/	.	.	.	.	.	.	.
=29	=29	=29	=29	=29	=29	=29	=29	=29	=29
1GG	-ae:	1G	-ae:	1B	-ae:	1r	.	1d	-ae:
=30	=30	=30	=30	=30	=30	=30	=30	=30	=30
2r	.	2r	.	2r	.	1r	.	2r	.
[2C/	con-	[2G/	con-	[2c\	con-	.	.	[2e/	con-
=31	=31	=31	=31	=31	=31	=31	=31	=31	=31
2C/]	.	2G/]	.	2c\]	.	1r	.	2e/]	.
2AA/	-gre-	2A/	-gre-	2c#\	-gre-	.	.	2e/	-gre-
=32	=32	=32	=32	=32	=32	=32	=32	=32	=32
2AA/	-ga-	2A/	-ga-	2c#\	-ga-	1r	.	2e/	-ga-
2AA/	-ti	2A/	-ti	2c#\	-ti	.	.	2e/	-ti
=33	=33	=33	=33	=33	=33	=33	=33	=33	=33
!!linebreak:original
1D	sunt	1A	sunt	1d	sunt	1r	.	1f#	sunt
=34	=34	=34	=34	=34	=34	=34	=34	=34	=34
2GG/	ad-	2B\	ad-	2d\	ad-	1r	.	2g/	ad-
[2C/	-ver-	[2c\	-ver-	[2e\	-ver-	.	.	[2g/	-ver-
=35	=35	=35	=35	=35	=35	=35	=35	=35	=35
2C/]	.	2c\]	.	2e\]	.	1r	.	2g/]	.
2E\	-sum	2B\	-sum	2e\	-sum	.	.	2g/	-sum
=36	=36	=36	=36	=36	=36	=36	=36	=36	=36
1D	me	1d	me	1f	me	1r	.	1a	me
=37	=37	=37	=37	=37	=37	=37	=37	=37	=37
[1G	for-	2B\	for-	[1d	for-	1r	.	[1g	for-
.	.	[2c\	.	.	.	.	.	.	.
=38	=38	=38	=38	=38	=38	=38	=38	=38	=38
1G]	.	2c\]	.	1d]	.	1r	.	1g]	.
.	.	2B\	.	.	.	.	.	.	.
=39	=39	=39	=39	=39	=39	=39	=39	=39	=39
[1C	-tes:	[1c	-tes:	[1e	-tes:	1r	.	[1g	-tes:
=40	=40	=40	=40	=40	=40	=40	=40	=40	=40
1C]	.	1c]	.	1e]	.	1r	.	1g]	.
=41||	=41||	=41||	=41||	=41||	=41||	=41||	=41||	=41||	=41||
1G	Et	1B	Et	1d	Et	1r	.	[1g	Et
=42	=42	=42	=42	=42	=42	=42	=42	=42	=42
1G	sic-	1B	sic-	1d	sic-	1r	.	1g]	.
=43	=43	=43	=43	=43	=43	=43	=43	=43	=43
2E\	-ut	2B\	-ut	2e\	-ut	1r	.	1g	sic-
2E\	gi-	2c\	gi-	2e\	gi-	.	.	.	.
=44	=44	=44	=44	=44	=44	=44	=44	=44	=44
1A	-gan-	2c\	-gan-	1c	-gan-	1r	.	2e/	-ut
.	.	4B\	.	.	.	.	.	2f#/	gi-
.	.	4A/	.	.	.	.	.	.	.
=45	=45	=45	=45	=45	=45	=45	=45	=45	=45
!!linebreak:original
2G\	-tes	1B	.	2d\	-tes	1r	.	1g	-gan-
2GG/	ste-	.	.	2d\	ste-	.	.	.	.
=46	=46	=46	=46	=46	=46	=46	=46	=46	=46
[1C	-te-	2c\	-tes	2.e\	-te-	1r	.	2g/	-tes
.	.	2G/	ste-	.	.	.	.	2e/	ste-
.	.	.	.	4d\	-runt	.	.	.	.
=47	=47	=47	=47	=47	=47	=47	=47	=47	=47
2C/]	.	2A/	-te-	2c\	con-	1r	.	2e/	-te-
2D\	-runt	2F/	-runt	2A/	-tra	.	.	2d/	-runt
=48	=48	=48	=48	=48	=48	=48	=48	=48	=48
1E	con-	2G/	con-	1G	con-	1r	.	2.B/	con-
.	.	4F#/	.	.	.	.	.	.	.
.	.	4E/	.	.	.	.	.	4c/	.
=49	=49	=49	=49	=49	=49	=49	=49	=49	=49
[1D	-tra	2F#/	.	[1A	-tra	1r	.	[1d	.
.	.	[2G/	.	.	.	.	.	.	.
=50	=50	=50	=50	=50	=50	=50	=50	=50	=50
1D]	.	2G/]	.	1A]	.	1r	.	2d/]	.
.	.	2F#i/	-tra	.	.	.	.	2d/	-tra
=51	=51	=51	=51	=51	=51	=51	=51	=51	=51
[1GG	me.	[1G	me.	[1B	me.	1r	.	[1d	me.
=52	=52	=52	=52	=52	=52	=52	=52	=52	=52
1GG]	.	1G]	.	1B]	.	1r	.	1d]	.
=53||	=53||	=53||	=53||	=53||	=53||	=53||	=53||	=53||	=53||
1r	.	1r	.	1r	.	[1g	A-	1r	.
=54	=54	=54	=54	=54	=54	=54	=54	=54	=54
1r	.	1r	.	1r	.	2g/]	.	1r	.
.	.	.	.	.	.	2g/	-li-	.	.
=55	=55	=55	=55	=55	=55	=55	=55	=55	=55
1r	.	1r	.	1r	.	1a	-e-	1r	.
=56	=56	=56	=56	=56	=56	=56	=56	=56	=56
!!pagebreak:original
1r	.	1r	.	1c	in-	1g	-ni	1r	.
=57	=57	=57	=57	=57	=57	=57	=57	=57	=57
1r	.	1r	.	2c\	-sur-	2r	.	1r	.
.	.	.	.	2c\	-re-	2g/	in-	.	.
=58	=58	=58	=58	=58	=58	=58	=58	=58	=58
1r	.	1r	.	1e	-xe-	2g/	-sur-	1r	.
.	.	.	.	.	.	2g/	-re-	.	.
=59	=59	=59	=59	=59	=59	=59	=59	=59	=59
1r	.	1r	.	2d\	-runt	1a	-xe-	1r	.
.	.	.	.	2f\	ad-	.	.	.	.
=60	=60	=60	=60	=60	=60	=60	=60	=60	=60
1r	.	1r	.	2e\	-ver-	2g/	-runt	1r	.
.	.	.	.	4d\	.	2cc\	ad-	.	.
.	.	.	.	4c\	.	.	.	.	.
=61	=61	=61	=61	=61	=61	=61	=61	=61	=61
1r	.	1r	.	2d\	.	2a/	-ver-	1r	.
.	.	.	.	2d\	-sum	2b\	-sum	.	.
=62	=62	=62	=62	=62	=62	=62	=62	=62	=62
1r	.	1r	.	1c	me,	1cc	me,	1r	.
=63	=63	=63	=63	=63	=63	=63	=63	=63	=63
1r	.	1r	.	1r	.	1r	.	1r	.
=64	=64	=64	=64	=64	=64	=64	=64	=64	=64
1r	.	1r	.	1c	et	1g	et	1e	et
=65	=65	=65	=65	=65	=65	=65	=65	=65	=65
1r	.	1r	.	1c	for-	[1g	for-	1e	for-
=66	=66	=66	=66	=66	=66	=66	=66	=66	=66
1r	.	1r	.	2c\	-tes	2g/]	.	2e/	-tes
.	.	.	.	[2c\	quae-	2g/	-tes	[2e/	quae-
=67	=67	=67	=67	=67	=67	=67	=67	=67	=67
!!linebreak:original
1r	.	1r	.	2c\]	.	2g/	quae-	2e/]	.
.	.	.	.	2B\	-si-	2g/	-si-	2d/	-si-
=68	=68	=68	=68	=68	=68	=68	=68	=68	=68
1r	.	1r	.	1c	-e-	1g	-e-	1e	-e-
=69	=69	=69	=69	=69	=69	=69	=69	=69	=69
1r	.	1r	.	2F/	-runt	2a/	-runt	2f/	-runt
.	.	.	.	[2c\	a-	[2g/	a-	[2e/	a-
=70	=70	=70	=70	=70	=70	=70	=70	=70	=70
1r	.	1r	.	2c\]	.	2g/]	.	2e/]	.
.	.	.	.	2B\	-ni-	2g/	-ni-	2d/	-ni-
=71	=71	=71	=71	=71	=71	=71	=71	=71	=71
1r	.	1r	.	1c	-mam	1g	-mam	2e/	-mam
.	.	.	.	.	.	.	.	[2g/	me-
=72	=72	=72	=72	=72	=72	=72	=72	=72	=72
1r	.	1r	.	1A	me-	[1cc	me-	2g/]	.
.	.	.	.	.	.	.	.	2f#/	.
=73	=73	=73	=73	=73	=73	=73	=73	=73	=73
1r	.	1r	.	[1G	-am.	2cc\]	.	[1g	-am.
.	.	.	.	.	.	4b\	.	.	.
.	.	.	.	.	.	4a/	.	.	.
=74	=74	=74	=74	=74	=74	=74	=74	=74	=74
1r	.	1r	.	1G]	.	1b	-am.	1g]	.
=75||	=75||	=75||	=75||	=75||	=75||	=75||	=75||	=75||	=75||
1G	Et	1B	Et	1d	Et	[1g	Et	[1g	Et
=76	=76	=76	=76	=76	=76	=76	=76	=76	=76
1G	sic-	1B	sic-	1d	sic-	1g]	.	1g]	.
=77	=77	=77	=77	=77	=77	=77	=77	=77	=77
2E\	-ut	2B\	-ut	2e\	-ut	1g	sic-	1g	sic-
2E\	gi-	2c\	gi-	2e\	gi-	.	.	.	.
=78	=78	=78	=78	=78	=78	=78	=78	=78	=78
!!pagebreak:original
1A	-gan-	2c\	-gan-	1c	-gan-	2e/	-ut	2e/	-ut
.	.	4B\	.	.	.	2f#/	gi-	2f#/	gi-
.	.	4A/	.	.	.	.	.	.	.
=79	=79	=79	=79	=79	=79	=79	=79	=79	=79
2G\	-tes	1B	.	2d\	-tes	1g	-gan-	1g	-gan-
2GG/	ste-	.	.	2d\	ste-	.	.	.	.
=80	=80	=80	=80	=80	=80	=80	=80	=80	=80
[1C	-te-	2c\	-tes	2.e\	-te-	2g/	-tes	2g/	-tes
.	.	2G/	ste-	.	.	2e/	ste-	2e/	ste-
.	.	.	.	4d\	-runt	.	.	.	.
=81	=81	=81	=81	=81	=81	=81	=81	=81	=81
2C/]	.	2A/	-te-	2c\	con-	2e/	-te-	2e/	-te-
2D\	-runt	2F/	-runt	2A/	-tra	2d/	-runt	2d/	-runt
=82	=82	=82	=82	=82	=82	=82	=82	=82	=82
1E	con-	2G/	con-	1G	con-	2.B/	con-	2.B/	con-
.	.	4F#/	.	.	.	.	.	.	.
.	.	4E/	.	.	.	4c/	.	4c/	.
=83	=83	=83	=83	=83	=83	=83	=83	=83	=83
[1D	-tra	2F#/	.	[1A	-tra	[1d	.	[1d	.
.	.	[2G/	.	.	.	.	.	.	.
=84	=84	=84	=84	=84	=84	=84	=84	=84	=84
1D]	.	2G/]	.	1A]	.	2d/]	.	2d/]	.
.	.	2F#i/	-tra	.	.	2d/	-tra	2d/	-tra
=85	=85	=85	=85	=85	=85	=85	=85	=85	=85
[1GG	me.	[1G	me.	[1B	me.	[1d	me.	[1d	me.
=86	=86	=86	=86	=86	=86	=86	=86	=86	=86
1GG]	.	1G]	.	1B]	.	1d]	.	1d]	.
==	==	==	==	==	==	==	==	==	==
*-	*-	*-	*-	*-	*-	*-	*-	*-	*-
!!!OTL: Tradiderunt me 
!!!COM: Ingegneri, Marc' Antonio
!!!CDT: ca. 1535/36-1592-07-01
!!!TXO: Latin
!!!ODT: 
!!!ARL: Klasztor OO. Paulinów na Jasnej Górze
!!!voices:	5
!!title: @{OTL}, @{GTL}, ed. @{ENC}
!!!pag:
!!!GTL: Responsoria in Hebdomada majore
!!!EFL: 
!!!YEM: Creative Commons CC/BY/NC/SA 4.0
!!!ENC: Marcin Konik
!!!END: 2015-0m-dd
!!!EED: Marcin Konik
!!!EEV: 
!!!ONB: Encoded in vim by Marcin Konik
!!!CharacterEncoding: utf-8
!!!RDF**kern: l=long note in original notation
!!!RDF**kern: i=editorial accidental
!!muse2ps: z14jc180F
